assets/Cross mark/Flat/cross_mark_flat.svg

<svg width="32" height="32" viewBox="0 0 32 32" fill="none" xmlns="http://www.w3.org/2000/svg">
<path d="M24.8787 2.87868C26.0503 1.70711 27.9497 1.70711 29.1213 2.87868C30.2929 4.05025 30.2929 5.94975 29.1213 7.12132L20.331 15.9116C20.2822 15.9604 20.2822 16.0396 20.331 16.0884L29.1213 24.8787C30.2929 26.0503 30.2929 27.9497 29.1213 29.1213C27.9497 30.2929 26.0503 30.2929 24.8787 29.1213L16.0884 20.331C16.0396 20.2822 15.9604 20.2822 15.9116 20.331L7.12132 29.1213C5.94975 30.2929 4.05025 30.2929 2.87868 29.1213C1.70711 27.9497 1.70711 26.0503 2.87868 24.8787L11.669 16.0884C11.7178 16.0396 11.7178 15.9604 11.669 15.9116L2.87868 7.12132C1.70711 5.94975 1.70711 4.05025 2.87868 2.87868C4.05025 1.70711 5.94975 1.70711 7.12132 2.87868L15.9116 11.669C15.9604 11.7178 16.0396 11.7178 16.0884 11.669L24.8787 2.87868Z" fill="#F92F60"/>
</svg>

<svg xmlns="http://www.w3.org/2000/svg" width="32" height="32" fill="none"><path fill="#F92F60" d="M24.879 2.879A3 3 0 1 1 29.12 7.12l-8.79 8.79a.125.125 0 0 0 0 .177l8.79 8.79a3 3 0 1 1-4.242 4.243l-8.79-8.79a.125.125 0 0 0-.177 0l-8.79 8.79a3 3 0 1 1-4.243-4.242l8.79-8.79a.125.125 0 0 0 0-.177l-8.79-8.79A3 3 0 0 1 7.12 2.878l8.79 8.79a.125.125 0 0 0 .177 0l8.79-8.79Z"/></svg>
